icons/precommit.svg

<svg width="16" height="16" viewBox="0 0 16 16" fill="none" xmlns="http://www.w3.org/2000/svg">
<path d="M6.58579 1.91421C7.36683 1.13317 8.63317 1.13317 9.41421 1.91421L14.0858 6.58579C14.8668 7.36683 14.8668 8.63316 14.0858 9.41421L9.41421 14.0858C8.63317 14.8668 7.36683 14.8668 6.58579 14.0858L1.91421 9.41421C1.13317 8.63317 1.13317 7.36683 1.91421 6.58579L6.58579 1.91421Z" fill="#EFB520"/>
<path d="M7.29282 2.707C7.65874 2.3411 8.23796 2.31787 8.63071 2.63766L8.70689 2.707L13.2928 7.29294L13.3622 7.36911C13.6821 7.76187 13.6588 8.34105 13.2928 8.707L8.70689 13.2929L8.63071 13.3623C8.26432 13.6606 7.73534 13.6607 7.369 13.3623L7.29282 13.2929L2.70689 8.707L2.63853 8.63083C2.33977 8.26434 2.3398 7.73562 2.63853 7.36911L2.70689 7.29294L7.29282 2.707ZM3.41392 7.99997L7.99986 12.5859L12.5858 7.99997L7.99986 3.41403L3.41392 7.99997Z" fill="#212D23"/>
<path d="M8.5 5.5C9.49991 5.5 10.0058 6.44049 10.0059 7.2959C10.0059 8.44043 9.5 9 8.5 9H7.5V10.5H6.5V5.5H8.5ZM7.5 8H8.2373C8.73709 7.99986 9.01304 7.70027 9.00781 7.2959C9.00252 6.89159 8.81796 6.50015 8.2373 6.5H7.5V8Z" fill="#212D23"/>
</svg>

<svg xmlns="http://www.w3.org/2000/svg" width="16" height="16" fill="none" viewBox="0 0 16 16"><path fill="#EFB520" d="M6.586 1.914a2 2 0 0 1 2.828 0l4.672 4.672a2 2 0 0 1 0 2.828l-4.672 4.672a2 2 0 0 1-2.828 0L1.914 9.414a2 2 0 0 1 0-2.828z"/><path fill="#212D23" d="M7.293 2.707a1 1 0 0 1 1.338-.07l.076.07 4.586 4.586.07.076a1 1 0 0 1-.07 1.338l-4.586 4.586-.076.07a1 1 0 0 1-1.262 0l-.076-.07-4.586-4.586-.068-.076a1 1 0 0 1 0-1.262l.068-.076zM3.413 8 8 12.586 12.586 8 8 3.414z"/><path fill="#212D23" d="M8.5 5.5c1 0 1.506.94 1.506 1.796C10.006 8.44 9.5 9 8.5 9h-1v1.5h-1v-5zM7.5 8h.737c.5 0 .776-.3.77-.704-.004-.404-.189-.796-.77-.796H7.5z"/></svg>
